assets/close.svg

<svg width="18" height="18" viewBox="0 0 18 18" fill="none" xmlns="http://www.w3.org/2000/svg">
<path fill-rule="evenodd" clip-rule="evenodd" d="M2.79348 1.25712C2.40295 0.866593 1.76979 0.866592 1.37927 1.25712L1.25712 1.37927C0.866592 1.76979 0.866593 2.40296 1.25712 2.79348L7.46364 9L1.25712 15.2065C0.866593 15.597 0.866592 16.2302 1.25712 16.6207L1.37927 16.7429C1.76979 17.1334 2.40295 17.1334 2.79348 16.7429L9 10.5364L15.2065 16.7429C15.597 17.1334 16.2302 17.1334 16.6207 16.7429L16.7429 16.6207C17.1334 16.2302 17.1334 15.597 16.7429 15.2065L10.5364 9L16.7429 2.79348C17.1334 2.40296 17.1334 1.76979 16.7429 1.37927L16.6207 1.25712C16.2302 0.866592 15.597 0.866593 15.2065 1.25712L9 7.46364L2.79348 1.25712Z" fill="white"/>
</svg>

<svg width="18" height="18" fill="none" xmlns="http://www.w3.org/2000/svg"><path fill-rule="evenodd" clip-rule="evenodd" d="M2.793 1.257a1 1 0 0 0-1.414 0l-.122.122a1 1 0 0 0 0 1.414L7.464 9l-6.207 6.207a1 1 0 0 0 0 1.414l.122.122a1 1 0 0 0 1.414 0L9 10.536l6.207 6.207a1 1 0 0 0 1.414 0l.122-.122a1 1 0 0 0 0-1.414L10.536 9l6.207-6.207a1 1 0 0 0 0-1.414l-.122-.122a1 1 0 0 0-1.414 0L9 7.464 2.793 1.257Z" fill="#fff"/></svg>
